X:1
T:Title
%%score { ( 1 3 ) | 2 }
L:1/8
Q:1/4=114
M:6/4
K:F
V:1 treble nm="Grand Piano"
V:3 treble 
V:2 bass 
V:1
 A2 _A2 =A2 F2 G2 A2 | B6 A6 | [Ec]2 [B,EG]2 [A,_E^F]2 [B,=EG]2 [CEA]2 [DEB]2 | A12 | %4
w: I.~Allan~Sankey * * * * *||||
 A2 _A2 =A2 F2 _A2 [F=A]2 | [FB]6 [F=B]6 | [Fd]2 [Fc]2 [CFA]2 [B,EG]2 [DEB]2 [CEA]2 | [A,F]12 | %8
w: ||||
 z6 c6- | c12 | z6 A6- | A12 | [Ec]2 [F=B]2 [G_B]2 D2 [CE]2 [CG]2 | [CF]6 [^CA]6 | %14
w: ||||||
 [DG]2 [DB]2 d2 D2 E2 G2[Q:1/4=112][Q:1/4=111][Q:1/4=109][Q:1/4=107][Q:1/4=106][Q:1/4=104][Q:1/4=102][Q:1/4=101][Q:1/4=99][Q:1/4=97] | %15
w: |
 F12[Q:1/4=96][Q:1/4=94][Q:1/4=92][Q:1/4=91][Q:1/4=89][Q:1/4=87] |] %16
w: |
V:2
 [F,CF]2 [F,=B,F]2 [F,CF]2 [F,A,]2 [F,_B,F]2 [F,CF]2 | [F,DF]6 [F,CF]6 | %2
 [C,B,]2 C,2 C,2 C,2 C,2 C,2 | [F,CF]12 | [F,CF]2 [F,=B,F]2 [F,CF]2 [_E,A,C]2 [E,B,C]2 [E,C]2 | %5
 [D,B,]6 [^C,_A,]6 | [C,A,]2 [C,A,]2 C,2 C,2 C,2 C,2 | F,12 | C2 C2 C2 C6 | C,2 C,2 C,2 .F,,6 | %10
 A,2 A,2 A,2 A,6 | [A,,F,]2 [A,,E,]2 [A,,F,]2 .[D,F,]6 | %12
 [C,G,]2 [D,G,]2 [E,C]2 [C,B,]2 [B,,G,]2 [B,,E,]2 | [A,,F,]6 [A,,F,]6 | %14
 [B,,F,]2 [B,,G,]2 [G,,B,D]2 [C,B,]2 [C,B,C]2 [E,B,C]2 | [F,A,C]12 |] %16
V:3
 x12 | x12 | x12 | x12 | x12 | x12 | x12 | x12 | c2 c2 c2 z6 | [A,F]2 [G,E]2 [B,G]2 .[F,A,F]6 | %10
 A2 A2 A2 z6 | D2 ^C2 E2 .D6 | x12 | x12 | x12 | x12 |] %16

